svgs/light/staff-snake.svg

<svg xmlns="http://www.w3.org/2000/svg" viewBox="0 0 384 512"><!--! Font Awesome Pro 6.6.0 by @fontawesome - https://fontawesome.com License - https://fontawesome.com/license (Commercial License) Copyright 2024 Fonticons, Inc. --><path d="M296 48l-88 0 0-32c0-8.8-7.2-16-16-16s-16 7.2-16 16l0 32-56 0L64 48C28.7 48 0 76.7 0 112s28.7 64 64 64l8 0c39.8 0 72-32.2 72-72l0-24 32 0 0 112 0 32 0 64-48 0c-17.7 0-32-14.3-32-32s14.3-32 32-32l16 0 0-32-16 0c-35.3 0-64 28.7-64 64s28.7 64 64 64l48 0 0 96-64 0c-8.8 0-16 7.2-16 16s7.2 16 16 16l64 0 0 2.7 0 45.3c0 8.8 7.2 16 16 16s16-7.2 16-16l0-45.3 0-2.7 0-32 0-96 32 0c26.5 0 48 21.5 48 48s-21.5 48-48 48l0 32c44.2 0 80-35.8 80-80s-35.8-80-80-80l-32 0 0-64 0-32 0-112 88 0c30.9 0 56 25.1 56 56s-25.1 56-56 56l-56 0 0 32 56 0c48.6 0 88-39.4 88-88s-39.4-88-88-88zM112 80l0 24c0 22.1-17.9 40-40 40l-8 0c-17.7 0-32-14.3-32-32s14.3-32 32-32l48 0zM72 120a16 16 0 1 0 0-32 16 16 0 1 0 0 32z"/></svg>

<svg xmlns="http://www.w3.org/2000/svg" viewBox="0 0 384 512"><!--! Font Awesome Pro 6.5.2 by @fontawesome - https://fontawesome.com License - https://fontawesome.com/license (Commercial License) Copyright 2024 Fonticons, Inc. --><path d="M296 48H208V16c0-8.8-7.2-16-16-16s-16 7.2-16 16V48H120 64C28.7 48 0 76.7 0 112s28.7 64 64 64h8c39.8 0 72-32.2 72-72V80h32V192v32 64H128c-17.7 0-32-14.3-32-32s14.3-32 32-32h16V192H128c-35.3 0-64 28.7-64 64s28.7 64 64 64h48v96H112c-8.8 0-16 7.2-16 16s7.2 16 16 16h64v2.7V496c0 8.8 7.2 16 16 16s16-7.2 16-16V450.7 448 416 320h32c26.5 0 48 21.5 48 48s-21.5 48-48 48v32c44.2 0 80-35.8 80-80s-35.8-80-80-80H208V224 192 80h88c30.9 0 56 25.1 56 56s-25.1 56-56 56H240v32h56c48.6 0 88-39.4 88-88s-39.4-88-88-88zM112 80v24c0 22.1-17.9 40-40 40H64c-17.7 0-32-14.3-32-32s14.3-32 32-32h48zM72 120a16 16 0 1 0 0-32 16 16 0 1 0 0 32z"/></svg>
